packages/crayons-core/src/components/icon/icon-assets/icons/freshchat.svg

<?xml version="1.0" encoding="UTF-8"?>
<svg width="16px" height="16px" viewBox="0 0 16 16" version="1.1" xmlns="http://www.w3.org/2000/svg" xmlns:xlink="http://www.w3.org/1999/xlink">
    <!-- Generator: Sketch 52.6 (67491) - http://www.bohemiancoding.com/sketch -->
    <title>icon/freshchat</title>
    <desc>Created with Sketch.</desc>
    <g id="Icons-✅" stroke="none" stroke-width="1" fill="none" fill-rule="evenodd">
        <g id="Icons" transform="translate(-162.000000, -1992.000000)" fill="currentColor">
            <g id="icon/freshchat" transform="translate(162.000000, 1992.000000)">
                <g id="freshchat">
                    <path d="M11.52,6.59 L5.92,6.59 C5.53340068,6.59 5.22,6.27659932 5.22,5.89 C5.22,5.50340068 5.53340068,5.19 5.92,5.19 L11.52,5.19 C11.9065993,5.19 12.22,5.50340068 12.22,5.89 C12.22,6.27659932 11.9065993,6.59 11.52,6.59 Z M8.92,10.09 L5.92,10.09 C5.53340068,10.09 5.22,9.77659932 5.22,9.39 C5.22,9.00340068 5.53340068,8.69 5.92,8.69 L8.92,8.69 C9.30659932,8.69 9.62,9.00340068 9.62,9.39 C9.62,9.77659932 9.30659932,10.09 8.92,10.09 Z M8,16 C3.581722,16 5.41083001e-16,12.418278 0,8 C-5.41083001e-16,3.581722 3.581722,8.11624501e-16 8,0 L13.3,0 C14.0160845,-5.92163289e-16 14.7028401,0.284463469 15.2091883,0.790811691 C15.7155365,1.29715991 16,1.98391548 16,2.7 L16,8 C16,12.418278 12.418278,16 8,16 Z M8,1.4 C4.35492065,1.4 1.4,4.35492065 1.4,8 C1.4,11.6450793 4.35492065,14.6 8,14.6 C11.6450793,14.6 14.6,11.6450793 14.6,8 L14.6,2.7 C14.6,1.98202983 14.0179702,1.4 13.3,1.4 L8,1.4 Z" id="Combined-Shape"></path>
                </g>
            </g>
        </g>
    </g>
</svg>

<svg viewBox="0 0 16 16"><path d="M11.52 6.59h-5.6a.7.7 0 0 1 0-1.4h5.6a.7.7 0 0 1 0 1.4zm-2.6 3.5h-3a.7.7 0 0 1 0-1.4h3a.7.7 0 0 1 0 1.4zM8 16A8 8 0 1 1 8 0h5.3A2.7 2.7 0 0 1 16 2.7V8a8 8 0 0 1-8 8zM8 1.4A6.6 6.6 0 1 0 14.6 8V2.7a1.3 1.3 0 0 0-1.3-1.3H8z" fill="currentColor" fill-rule="evenodd"/></svg>
